X:1
T:Recorder Sonata No.4 in g-moll from "12 Recorder Sonata Op.3 "
T:Recorder Sonata No.4 in g-moll
T:from " 12 Recorder Sonata Op.3 " Transcribed for Recrder, Viola da gamba, Harpsichord from IMSLP#510922 PDF File
T: Paolo Benedetto Bellinzani (ca.1690 — ca.1757)
T:Public Domain - Non-PD US
T:Public Domain - Non-PD US
T:Public Domain - Non-PD US
T:Public Domain - Non-PD US
T:Public Domain - Non-PD US
C:Paolo Benedetto Bellinzani (ca.1690 — ca.1757)
Z:Public Domain - Non-PD US
%%score [ 1 2 ] { ( 3 4 5 7 ) | 6 }
L:1/8
Q:3/8=70
M:12/8
K:Bb
V:1 treble nm="Altblockflöte" snm="A. Rec."
V:2 bass nm="Viola da gamba" snm="Vla. d. g."
V:3 treble nm="Harpsichord" snm="Hch."
V:4 treble 
V:5 treble 
V:7 treble 
V:6 bass 
V:1
"^1. Adagio" d>BG G2 g g2 ^f z z a | a>^fd c2 a- a>BA B2 g | g>ed c2 B A2 g f2 A | %3
 B2 e d>cB B2 A d2 c | B>AG g>a^f g>af g>af | g2 =f =e>fd ^c2 A A2 a- | a=Bg- g^cg- g>f=e f>ga | %7
 b2 d b2 ^c d3- d>=ef | g2 g g2 g A2 a- a2 g | f>=ed _e>d^c d6 :: ^f>ga c2 a- a>BA B2 d | %11
 g>ab _e2 e e>dc d2 f | g2 f e2 d c(ab) (de)c | B3 z2 b- b>ag a2 a | a>g^f g2 d e>dc f>ed | %15
 c'6- c'2 d ^f2 c' | b>ag _a>g^f g2 d e3- | e>dc d3- d>cB c3 | c2 B B>cA G6 :| x/8 | %20
[M:4/4][Q:1/4=120]"^2. Allegro" d' | ba/b/ gb a^fdd' | ba g/a/b/c'/ d'dd'd' | %23
 e'/d'/c'/d'/ e'/d'/c'/b/ a/c'/b/c'/ a/c'/b/c'/ | d'/c'/b/c'/ d'/c'/b/a/ g/b/a/b/ g/b/a/b/ | %25
 c'/b/a/b/ c'/b/a/g/ ^fdg=f | e/c/d/e/ f/c/f/e/ d/B/c/d/ e/B/e/d/ | %27
 c/A/B/c/ d/A/d/c/ B2 z/ G/B/d/ | e/d/c/B/ c/B/A/G/ abca | z/ B/d/f/ d/B/d/f/ g/b/a/b/ g/a/f/g/ | %30
 =e/c/e/g/ e/c/e/g/ a/c'/b/c'/ a/b/g/a/ | ^f/d/f/a/ f/d/f/a/ b/d'/c'/d'/ b/d'/a/b/ | %32
 g/e/g/b/ g/e/g/b/ c'/e'/d'/e'/ c'/b/a/g/ | ^f g2 =f2 e2 d | ^c/A/d/=e/ Te>d d3 :: a | %36
 a/g/^f/e/ dc B2 z g | g/f/=e/d/ cB A2 z f | f/e/d/c/ dg =ec f2- | f=e/d/ cB A2 TG2 | %40
 z F/G/ A/B/c/d/ _e/c/A/F/ e/c/A/F/ | d/c/B/c/ d/e/f/g/ _a/f/d/B/ a/f/d/B/ | %42
 g/f/e/f/ g/a/b/c'/ b/g/=e/c/ b/g/e/c/ | =a/g/f/g/ a/b/c'/d'/ c'/a/^f/d/ c'/a/f/d/ | %44
 b/a/g/^f/ ga fd z d | eg/^f/ gc'/=b/ c'3 c- | cedc Bg/^f/ gB | A/g/^f/g/ Af g3 :| x/8 | %49
[M:4/4][Q:1/4=60]"^3. Adagio" e2- e/>g/f/>e/ d/>B/d/>f/ _a/>g/f/>a/ | %50
 g/>e/d/>e/ c'/>d'/b/>c'/ _a/>b/g/>a/ f/g/4a/<f/e/4 | df b-b/4B/4c/4_d/4 ce _a-a/4c/4=d/4e/4 | %52
 d/>B/e/>_a/ gf/>e/ =a/>f/b/>d/ Tc>B | BB e>d c/>_A/G/>F/ f>e | d/>B/_A/>G/ g>f e/>c/B/>A/ _a>g | %55
 ^f/>g/f/>g/ ad g>=f e/>d/c/>B/ | A/>^f/g/>B/ TA>G e>f d3/2e/4f/4 | g2- g/a/4b/4a/b/4g/4 ^f4 |] %58
[M:3/8][Q:3/8=60]"^4. Presto" z/ d/g/d/B/G/ | ^f/a/d'/a/f/d/ | b/d/g/d/B/G/ | e/g/c'/g/e/c/ | %62
 A/c/f/c/A/F/ | d/f/b/f/d/B/ | g/B/e/B/G/e/ | A/c/f/c/A/e/ | d/f/b/f/d/b/ | g/b/e'/b/g/e/ | abd | %69
 cba | b2 z | z/ d/g/d/=B/g/ | =e/g/a/e/c/a/ | ^f/a/d'/a/f/d/ | b/d/g/d/B/G/ | ^c/=e/a/e/c/A/ | %76
 a/c/f/=ed/ | d3 :: z/ d/^f/a/c/a/ | B/d/g/=b/f/d'/ | =e/G/c/e/B/g/ | A/c/f/a/e/c'/ | %82
 d/f/b/d'/b/f/ | g/B/e/g/e/c/ | A/B<TAG/4A/4 | B2 z | z/ d/g/=b/f/d'/ | _e/g/c'/g/e/c/ | %88
 A/c/f/a/e/c'/ | d/f/b/f/d/B/ | g/b/e'/b/g/e/ | c/g/c'/e'/c'/a/ | ^f/a/d'/a/f/d/ | b/d/g/d/B/G/ | %94
 e/g/c'/g/e/c/ | ^f/g<TAG/ | G3 :| %97
V:2
 G,3 G,,3 D,3 D,3 | ^F,3 =E,2 F, G,3 G,3 | _E,3 =E,3 F,2 _E, D,2 C, | %3
 B,,2 C, D,2 E, F,2 F, F,2 ^F, | G,3 G,,2 A,, B,,2 A,, G,,2 A,, | B,,2 A,, G,,>A,,B,, A,,3 z2 F, | %6
 G,>F,=E, A,2 ^C, D,3- D,>E,F, | G,2 z z2 A, B,2 A, G,2 F, | =E,>G,F, E,2 D, ^C,2 A,, =B,,2 C, | %9
 D,>=E,F, G,2 A, D,6 :: D,3 ^F,3 G,3 G,,3 | z2 G, A,2 F, B,3 B,,3 | E,2 D, C,2 B,, F,2 G, E,2 F, | %13
 B,,2 C, D,2 E, F,3 F,,2 ^F, | G,2 A, B,2 G, C,2 z D,2 z | E,2 D, C,>D,E, ^F,,3 z2 ^F, | %16
 G,>A,B, C2 D G,3 z2 C | F,3 z2 B, E,3 z2 E, | ^F,,2 G,, D,2 D,, G,,6 :| z/8 |[M:4/4] z | %21
 G,2 G,,2 D,2 z ^F, | G,F, E,2 D,DB,G, | C, z C, z F, z F, z | B,, z B,, z E, z E, z | %25
 A,, z A,, z D,DB,G, | z CA,F, z B,G,E, | z A,^F,D, G,D,B,,G,, | CG,E,C, F,G,E,F, | %29
 B,,2 z2 B,,B,,B,,B,, | C,2 z2 C,C,C,C, | D,2 z2 D,D,D,D, | E,2 z2 E,E,E,C, | D,=B,CA, _B,G,A,B, | %34
 A,/G,/F,/G,/ A,A,, D,3 :: z | D,2 z ^F, G,D,B,,G,, | C,2 z =E, F,C,A,,F,, | B,,2 z B,, C,CA,F, | %39
 B,G,A,B, C2 C,2 | F,2 z2 A,,A,,A,,A,, | B,,2 z2 D,D,D,D, | E,2 z2 =E,E,E,E, | F,2 z2 ^F,F,F,F, | %44
 G,G,,/A,,/ B,,C, D,D=B,G, | C2 z C,/D,/ E,E/D/ C/B,/A,/G,/ | ^F,2 z F, G,G,,/A,,/ B,,C, | %47
 D,2 D,,2 G,,3 :| z/8 |[M:4/4] E,F,G,_A, B,B,,C,D, | E,F,/>G,/ _A,G, F,E,A,_A,, | %51
 B,,B,G,E, _A,_A,,/>G,,/ A,,A, | B,/>_A,/G,/>A,/ B,B,, F,/>E,/D,/>E,/ F,F,, | %53
 B,,2 z E,, _A,,2 z/ F,/_A,/F,/ | B,2 z/ G,/=B,/G,/ C2 z/ C,/E,/C,/ | D,D, D,D/>C/ B,B,,C,C | %56
 D/>C/C/>C/ DD, G,2 F,2 | E,2 ^C,2 D,4 |][M:3/8] G,B,,G,, | D,^F,,D,, | G,B,,G,, | CE,C, | %62
 F,A,,F,, | B,D,B,, | E,G,,E,, | F,A,,F,, | B,D,B,, | EG,E, | F,D,B,, | E,F,F,, | %70
 z/ F,/B,/F,/D,/F,/ | =B,,2 z | C,2 z | D,2 z | G,B,,G,, | A,,A,G, | F,/G,/A,A,, | D,3 :: ^F,D,F, | %79
 G,G,,=B,, | C,=E,C, | F,F,,A,, | B,,B,D | EE,E, | F,/B,,/F,F,, | z/ F,/B,/D/F/D/ | =B,G,B, | %87
 CE,C, | F,F,,A,, | B,,D,B,, | E,G,,E,, | E,C,E | C^F,D, | G,B,,G,, | CE,C, | D,/G,,/D,D,, | %96
 G,,3 :| %97
V:3
 [B,DG]3 [DGB]3 A2 ^F d3 | A2 B c>BA B2 ^F B2 B | B3 c2 c c>de f2 e | %3
 [Bd]2 [Ac] B>AG [DF]2 A [DA]2 [DA] | [B,G]>[CA][DB] B>cA [DG]2 [C^FA] B>cA | %5
 [DG]2 [C=FA] [D=EB]>[CFA][DG] [^CEA]3 z2 [Ad] | %6
 [=Bd]2 [B=e] [GA^c]2 [GAe] [Ge]>[Fd][=Ec] [FAd]2 [Ad] | [GBd]2 z z2 [=EA] G2 [FA] [EB]2 [Ad] | %8
 ^c2 d c2 d =e2 [GAc] [FAd]2 [GAe] | [FAd]2 [FA] z GE [FA]6 :: [^FAd]3 [DAc]3 A3 G3 | %11
 z2 [GB] [EFc]2 [EFA] [FB]4 z2 | [EGB]2 [FB] [EAc]2 [FBd] z cB [DGB]2 [CFA] | %13
 B3 B2 [Bc] [FBc]3 [FAc]2 [EAc] | [Ac]>[GB][^FA] D2 [DB] [E^Gc]2 z [FA]2 z | G2 F E>FG A3 z2 A | %16
 B>cd e2 d d3 z2 [EG] | [EAc]3 z2 [DF] D3 z2 [CE] | [CDA]2 [B,DG] [B,DG]2 [A,D^F] [B,DG]6 :| z/8 | %20
[M:4/4] z | [GBd]2 [Bdg]2 [Ad^f]2 z [Ada] | [Bdg][Ad] [Gcg]2 [Ad^f]2 [Gdg][GB] | %23
 [EGc] z [EGc] z [EAc] z [EAc] z | [DAB] z [DAB] z [DGB] z [DGB] z | %25
 [CGA] z [CGA] z [D^FA]2 [DG][=FG=B] | [EGc]2 [EFc]2 [DFB]2 [DEB]2 | %27
 [CEA]2 [CDA]2 [B,DG]2 z [DGB] | [EGc]2 [Gc]2 [EAc][DGB][CGB][CFA] | [DFB]2 z2 d2 [Gd]2 | %30
 [=EGc]2 z2 =e2 [Ae]2 | [^FAd]2 z2 f2 [Bf]2 | [Ge]2 z2 g2 ce | %33
 [^FAd][Gd][EGc][Fc] [DFB][EB][CEA][DG] | [^C=EA][DFA]/[DEB]/ [CEA][EA^c] [FAd]3 :: z | %36
 [^FAd]2 z [DA] [DG]2 z [DGB] | [=EGc]2 z [CG] [CF]2 z [CFA] | [DFB]2 z [DGd] [=EGc]2 [Fc][FA] | %39
 [DB][GB][Fc][Fd] [FAc]2 [Gc=e]2 | [Acf]2 z2 [_Ec]2 [EFc]2 | [DFB]2 z2 [_ABf]2 [ABf]2 | %42
 [GBe]2 z4 [Bcg]2 | [=Acf]2 z2 [cda]2 [cda]2 | [dg] z [Gd][GAe] [^FAd]2 [DGd][DG=B] | %45
 [EGc]2 z e/d/ cc/B/ A/G/^F/G/ | [CEA]2 z [DA] [DG][DB]/[CA]/ [DG][EG] | [DG]2 [CD^F]2 [B,DG]3 :| %48
 z/8 |[M:4/4] G_ABc [DFB][FBd][EAc][FAB] | B2 [CEA][B,EB] [FAd][GBe][Fcf][Fc] | %51
 [DFB]2 [B,EB][B,EG] _Ac/>B/ [EAc][Fc] | [FBd][EBe]/>[_Acf]/ [GBe][FBd] cBB=A | %53
 [DFB]2 z [EG] [C_A]2 z/ A/c/A/ | [DB]2 z/ =B/d/B/ [Ec]2 z/ z A/ | A/>B/A/>B/ cA d2 z2 | %56
 ^F/>A/G [D-G][CDF] [B,EB]2 [=FAd]2 | [GBe]2 [GB=e]2 [^FAd]4 |][M:3/8] [DGB]3 | [D^FA]3 | [DGB]3 | %61
 [Ec]3 | [CFA]3 | [DFB]3 | [EGB]3 | [CFA]3 | [DFB]3 | [EGB]2 z | [FAc] [FB]2 | [GB] BA | [FBd]2 z | %71
 [DGd]2 z | [=EGc]2 z | [D^FA]2 z | [DGB]2 z | [^C=EA]2 z | [Fd] [FA-d] [=EA^c] | [FAd]3 :: %78
 [DA][D^F][CDA] | [B,DG][DG=B][FGd] | [=EGc][CG][B,CE] | [A,CF][CFA][EFc] | [DFB]2 [FB] | %83
 [EGB]2 z | FF/G/F/E/ | [A,D]D/F/B/F/ | z =Bd | c2 z | z Ac | [DFB]2 [DFB] | [EGB]2 [EGB] | %91
 [Gc]2 [Gc] | [^FAd]2 [FAd] | [Bd]2 z | [EG][CG][EGA] | [^FA]/[GB]/[DF] z | [B,DG]3 :| %97
V:4
 x6 D3 ^F>GA | D3 x2 A D2 x [DG]3 | [EG]2 G G3 [FA]3 [FB]B=A | x FE F2 E x2 [CF] A,>B,C | %4
 D2 G [DG]2 [C^F] x3 [DG]2 [CF] | x12 | AGG x3 A3 x3 | x6 D3- D2 x | [GB]3 [GB]3 [GA]2 x4 | %9
 x3 [EB]2 [CA] D2[I:staff +1] A,[I:staff -1] D3 :: x6 [DB]6 | x6 E3 D3 | x6 FED x3 | D3 x2 F x6 | %14
 D2 x10 | x3 E3 E2 D x3 | x3 c>BA B3 x3 | x12 | x12 :| x/4 |[M:4/4] x | x8 | x8 | x8 | x8 | x8 | %26
 x8 | x8 | x8 | x4 GFGF | x4 AGAG | x4 BABA | x4 cB c/B/A/G/ | x8 | x7 :: x | x8 | x8 | x8 | x8 | %40
 x8 | x8 | x8 | x8 | BB/[Ac]/ x6 | x3 G G2 E2 | x8 | x7 :| x/4 |[M:4/4] x8 | [EG][DA]/>[EG]/ x6 | %51
 x4 [CE] x3 | x4 [F=A]F/>[EG]/ [CF]2 | x7 F | x3 G x5/2 E/C/E/ | [D^F][DF][DF]F [DG][DG][EG][EA] | %56
 DD/E/4 x25/4 | x8 |][M:3/8] x3 | x3 | x3 | x3 | x3 | x3 | x3 | x3 | x3 | x3 | x3 | x [Fc]2 | x3 | %71
 x3 | x3 | x3 | x3 | x3 | A/B/ x2 | x3 :: x3 | x3 | x3 | x3 | x3 | x2 [CG] | C/D/ C2 | x3 | %86
 [DG]2 [FG] | [EG]2 [EG] | [CF]2 [EF] | x3 | x3 | CEG | x3 | GD[DG] | x3 | DDC | x3 :| %97
V:5
 x6 G3 x3 | x12 | x12 | x12 | x12 | x12 | x12 | x12 | x12 | x12 :: x12 | x12 | x6 A2 G x3 | x12 | %14
 x12 | x12 | x12 | x12 | x12 :| x/4 |[M:4/4] x | x8 | x8 | x8 | x8 | x8 | x8 | x8 | x8 | x8 | x8 | %31
 x8 | x8 | x8 | x7 :: x | x8 | x8 | x8 | x8 | x8 | x8 | x8 | x8 | x8 | x8 | x8 | x7 :| x/4 | %49
[M:4/4] x8 | x8 | x8 | x8 | x8 | x8 | x8 | x8 | x8 |][M:3/8] x3 | x3 | x3 | x3 | x3 | x3 | x3 | %65
 x3 | x3 | x3 | x3 | x3 | x3 | x3 | x3 | x3 | x3 | x3 | x3 | x3 :: x3 | x3 | x3 | x3 | x3 | x3 | %84
 x3 | x3 | x3 | x3 | x3 | x3 | x3 | x3 | x3 | x3 | x3 | x3 | x3 :| %97
V:6
 G,3 G,,3 D,3 D,3 | ^F,3 =E,2 F, G,3 G,3 | _E,3 =E,3 F,2 _E, D,2 C, | %3
 B,,2 C, D,2 E, F,2 F, F,2 ^F, | G,3 G,,2 A,, B,,2 A,, G,,2 A,, | B,,2 A,, G,,>A,,B,, A,,3 z2 F, | %6
 G,>F,=E, A,2 ^C, D,3- D,>E,F, | G,2 z z2 A, B,2 A, G,2 F, | =E,>G,F, E,2 D, ^C,2 A,, =B,,2 C, | %9
 D,>=E,F, G,2 A, D,6 :: D,3 ^F,3 G,3 G,,3 | z2 G, A,2 F, B,3 B,,3 | E,2 D, C,2 B,, F,2 G, E,2 F, | %13
 B,,2 C, D,2 E, F,3 F,,2 ^F, | G,2 A, B,2 G, C,2 z D,2 z | E,2 D, C,>D,E, ^F,,3 z2 ^F, | %16
 G,>A,B, C2 D G,3 z2 C | F,3 z2 B, E,3 z2 E, | ^F,,2 G,, D,2 D,, G,,6 :| z/8 |[M:4/4] z | %21
 G,2 G,,2 D,2 z ^F, | G,F, E,2 D,DB,G, | C, z C, z F, z F, z | B,, z B,, z E, z E, z | %25
 A,, z A,, z D,DB,G, | z CA,F, z B,G,E, | z A,^F,D, G,D,B,,G,, | CG,E,C, F,G,E,F, | %29
 B,,2 z2 B,,B,,B,,B,, | C,2 z2 C,C,C,C, | D,2 z2 D,D,D,D, | E,2 z2 E,E,E,C, | D,=B,CA, _B,G,A,B, | %34
 A,/G,/F,/G,/ A,A,, D,3 :: z | D,2 z ^F, G,D,B,,G,, | C,2 z =E, F,C,A,,F,, | B,,2 z B,, C,CA,F, | %39
 B,G,A,B, C2 C,2 | F,2 z2 A,,A,,A,,A,, | B,,2 z2 D,D,D,D, | E,2 z2 =E,E,E,E, | F,2 z2 ^F,F,F,F, | %44
 G,G,,/A,,/ B,,C, D,D=B,G, | C2 z C,/D,/ E,E/D/ C/B,/A,/G,/ | ^F,2 z F, G,G,,/A,,/ B,,C, | %47
 D,2 D,,2 G,,3 :| z/8 |[M:4/4] E,F,G,_A, B,B,,C,D, | E,F,/>G,/ _A,G, F,E,A,_A,, | %51
 B,,B,G,E, _A,_A,,/>G,,/ A,,A, | B,/>_A,/G,/>A,/ B,B,, F,/>E,/D,/>E,/ F,F,, | %53
 B,,2 z E,, _A,,2 z/ F,/_A,/F,/ | B,2 z/ G,/=B,/G,/ C2 z/ C,/E,/C,/ | D,D, D,D/>C/ B,B,,C,C | %56
 D/>C/C/>C/ DD, G,2 F,2 | E,2 ^C,2 D,4 |][M:3/8] G,B,,G,, | D,^F,,D,, | G,B,,G,, | CE,C, | %62
 F,A,,F,, | B,D,B,, | E,G,,E,, | F,A,,F,, | B,D,B,, | EG,E, | F,D,B,, | E,F,F,, | %70
 z/ F,/B,/F,/D,/F,/ | =B,,2 z | C,2 z | D,2 z | G,B,,G,, | A,,A,G, | F,/G,/A,A,, | D,3 :: ^F,D,F, | %79
 G,G,,=B,, | C,=E,C, | F,F,,A,, | B,,B,D | EE,E, | F,/B,,/F,F,, | z/ F,/B,/D/F/D/ | =B,G,B, | %87
 CE,C, | F,F,,A,, | B,,D,B,, | E,G,,E,, | E,C,E | C^F,D, | G,B,,G,, | CE,C, | D,/G,,/D,D,, | %96
 G,,3 :| %97
V:7
 x12 | x6 A3 x3 | x12 | x12 | x12 | x12 | x12 | x12 | x12 | x12 :: x12 | x12 | x12 | x12 | x12 | %15
 x12 | x12 | x12 | x12 :| x/4 |[M:4/4] x | x8 | x8 | x8 | x8 | x8 | x8 | x8 | x8 | x8 | x8 | x8 | %32
 x8 | x8 | x7 :: x | x8 | x8 | x8 | x8 | x8 | x8 | x8 | x8 | x8 | x8 | x8 | x7 :| x/4 |[M:4/4] x8 | %50
 x8 | x8 | x8 | x8 | x8 | x8 | x8 | x8 |][M:3/8] x3 | x3 | x3 | x3 | x3 | x3 | x3 | x3 | x3 | x3 | %68
 x3 | x3 | x3 | x3 | x3 | x3 | x3 | x3 | x3 | x3 :: x3 | x3 | x3 | x3 | x3 | x3 | x3 | x3 | x3 | %87
 x3 | x3 | x3 | x3 | x3 | x3 | x3 | x3 | x3 | x3 :| %97

